X:1
T: The Moray Firth Hornpipe
C:Muriel A Johnstone
R:Reel
%Q: 232
K:C
M:4/4
L:1/8
G2 cG A2 cA|G2 g2 ge cG|A2 a^g af dB|cc' ge dB GF|
E2 cE F2 dF|G2 g^f ge cG|((3Adf) a^g af dB|Bc GE C4|
A,3A, A,^C EG|FE D2 fe d2|G,3B, B,B, DF|ED C2 ed c2|
e2 ce fe dc|BG Bd ge cG|((3Acf) a^g af dB|Bc GE C4|
B,3B, B,^D ^FA|G2 ((3EGB) e2 z2|D3D D^F Ac|B2 ((3GBd) g2 ((3ag^f)|
g2 ec f2 cA|((3Gce) g^f ge cG|((3Acf) a^g af dB|Bc GE C4|
G2 cG A2 cA|G2 g2 ge cG|A2 a^g af dB|cc' ge dB GF|
E2 cE F2 dF|G2 g^f ge cG|((3Adf) a^g af dB|Bc GE C4||
